dist/svg/static/anti-theft-alarm-system-alert-large.svg

<svg xmlns="http://www.w3.org/2000/svg" width="48" height="48" viewBox="0 0 48 48"><g fill="none" stroke="currentColor"><g stroke-miterlimit="10"><path d="M12.5 36.5h24c.6 0 1 .4 1 1v4c0 .6-.4 1-1 1h-24c-.6 0-1-.4-1-1v-4c0-.6.4-1 1-1zM32.5 24.5l1.9 12M14.9 36.5l3.8-20c0-.6.3-1 .8-1H26"/></g><g stroke-miterlimit="10"><path d="M24.5 2v10M16 14L9 7M4 23.5h10"/></g><path stroke-linejoin="round" d="M35.5 9v6M35.5 17v2"/><path stroke-miterlimit="10" d="M45.5 21.5h-20l10-18z"/></g></svg>

<?xml version="1.0" encoding="UTF-8" standalone="no"?>
<svg width="48px" height="48px" viewBox="0 0 48 48" version="1.1" xmlns="http://www.w3.org/2000/svg" xmlns:xlink="http://www.w3.org/1999/xlink">
    <!-- Generator: sketchtool 46.2 (44496) - http://www.bohemiancoding.com/sketch -->
    <title>anti-theft-alarm-system-alert-large</title>
    <desc>Created with sketchtool.</desc>
    <defs></defs>
    <g id="icons-published" stroke="none" stroke-width="1" fill="none" fill-rule="evenodd">
        <g id="briefing" transform="translate(-1440.000000, -26.000000)"></g>
        <g id="anti-theft-alarm-system-alert-large" stroke="#000000">
            <path d="M12.5,36.5 L36.5,36.5 C37.1,36.5 37.5,36.9 37.5,37.5 L37.5,41.5 C37.5,42.1 37.1,42.5 36.5,42.5 L12.5,42.5 C11.9,42.5 11.5,42.1 11.5,41.5 L11.5,37.5 C11.5,36.9 11.9,36.5 12.5,36.5 Z M32.5,24.5 L34.4,36.5 L32.5,24.5 Z" id="Shape"></path>
            <path d="M14.9,36.5 L18.7,16.5 C18.7,15.9 19,15.5 19.5,15.5 L26,15.5" id="Path"></path>
            <path d="M24.5,2 L24.5,12 M16,14 L9,7 M4,23.5 L14,23.5" id="Shape"></path>
            <path d="M35.5,9 L35.5,15 M35.5,17 L35.5,19" id="Shape" stroke-linejoin="round"></path>
            <polygon id="Shape" points="45.5 21.5 25.5 21.5 35.5 3.5"></polygon>
        </g>
    </g>
</svg>
